src/icons/svg/role.svg

<?xml version="1.0" encoding="UTF-8"?>
<svg width="40px" height="36px" viewBox="0 0 40 36" version="1.1" xmlns="http://www.w3.org/2000/svg"
>
    <path d="M39.7469003,9.11158743 L36.4566049,3.54339511 C34.6849073,1.0123986 32.4070105,0 27.8512168,0 L24.5609213,0 C24.054722,0 23.8016224,0.253099651 23.5485227,0.506199302 L22.7892237,2.27789686 L20.0051276,5.56819232 L17.4741311,2.53099651 L16.7148321,1.0123986 C16.7148321,0.506199302 16.2086328,0.253099651 15.7024335,0.253099651 L12.1590384,0.253099651 C8.10944401,0.253099651 5.32534785,1.5185979 3.30055064,4.30269406 L0.263354832,9.11158743 C-0.242844469,10.123986 0.0102551815,11.3894843 0.769554134,11.8956836 L4.81914855,15.4390787 C5.5784475,15.945278 6.33774645,16.1983776 7.0970454,15.945278 L7.35014505,15.945278 L7.6032447,15.6921783 L7.6032447,30.3719581 C7.6032447,33.4091539 9.88114156,35.6870508 12.9183374,35.6870508 L26.5857185,35.6870508 C29.6229143,35.6870508 31.9008112,33.4091539 31.9008112,30.3719581 L31.9008112,15.4390787 L33.1663094,15.4390787 C33.6725087,15.4390787 34.4318077,15.185979 34.938007,14.9328794 L38.9876014,11.6425839 C40,11.3894843 40.2530997,10.123986 39.7469003,9.11158743 Z M33.6725087,13.4142815 L33.1663094,13.4142815 L32.4070105,12.9080822 L31.9008112,12.9080822 C31.6477115,12.9080822 31.3946119,12.6549825 31.1415122,12.6549825 C30.6353129,12.9080822 30.1291136,13.4142815 30.1291136,14.1735804 L30.1291136,30.3719581 C30.1291136,32.1436556 28.6105157,33.4091539 27.0919178,33.4091539 L13.171437,33.4091539 C11.3997395,33.4091539 10.1342412,31.890556 10.1342412,30.3719581 L10.1342412,14.1735804 C9.88114156,14.1735804 9.88114156,14.1735804 9.88114156,13.9204808 C9.88114156,13.4142815 9.37494226,12.9080822 8.61564331,12.9080822 C8.10944401,12.9080822 7.6032447,13.1611818 7.6032447,13.1611818 L6.33774645,13.9204808 L6.0846468,13.9204808 L2.03505239,10.3770857 L5.0722482,5.56819232 C6.33774645,3.79649476 8.10944401,2.53099651 11.9059388,2.53099651 L14.9431346,2.53099651 L15.4493339,3.54339511 C15.4493339,3.54339511 15.4493339,3.79649476 15.7024335,3.79649476 L18.7396293,7.33988987 C19.4989283,8.09918882 20.7644265,8.09918882 21.2706258,7.33988987 L24.3078217,3.79649476 C24.3078217,3.79649476 24.3078217,3.54339511 24.5609213,3.54339511 L25.0671206,2.53099651 L27.8512168,2.53099651 C32.1539108,2.53099651 33.4194091,3.29029546 34.4318077,5.06199302 L37.7221031,10.3770857 L33.6725087,13.4142815 Z"
          id="形状"></path>
</svg>

<svg width="40" height="36" xmlns="http://www.w3.org/2000/svg"><path d="M39.747 9.112l-3.29-5.569C34.685 1.013 32.407 0 27.85 0h-3.29c-.506 0-.76.253-1.012.506l-.76 1.772-2.784 3.29-2.53-3.037-.76-1.519c0-.506-.506-.759-1.013-.759H12.16c-4.05 0-6.834 1.266-8.858 4.05L.263 9.112c-.506 1.012-.253 2.277.507 2.784l4.05 3.543c.758.506 1.518.76 2.277.506h.253l.253-.253v14.68c0 3.037 2.278 5.315 5.315 5.315h13.668c3.037 0 5.315-2.278 5.315-5.315V15.439h1.265c.507 0 1.266-.253 1.772-.506l4.05-3.29c1.012-.254 1.265-1.519.759-2.531zm-6.074 4.302h-.507l-.759-.506h-.506c-.253 0-.506-.253-.76-.253-.506.253-1.012.76-1.012 1.519v16.198c0 1.772-1.518 3.037-3.037 3.037h-13.92c-1.772 0-3.038-1.518-3.038-3.037V14.174c-.253 0-.253 0-.253-.254 0-.506-.506-1.012-1.265-1.012-.507 0-1.013.253-1.013.253l-1.265.76h-.253l-4.05-3.544 3.037-4.809c1.266-1.772 3.037-3.037 6.834-3.037h3.037l.506 1.012s0 .253.253.253L18.74 7.34c.759.76 2.024.76 2.53 0l3.038-3.544s0-.253.253-.253l.506-1.012h2.784c4.303 0 5.568.76 6.58 2.531l3.291 5.315-4.05 3.037z"/></svg>
